X: 1531
T: Andy's
R: jig
M: 6/8
K: Dmajor
|:E|F^EF DFA|GBG E>ed|cec ABc|dcB A2 E|
F^EF DF/G/A|G/A/BG E>ed|cec ABc|d3 d2:|
|:f|a^gb a2 f|d>cB A2 A|dcd BB/c/d|fe^d e>fg|
a^gb a2 f|dd/c/B A2 [Bf]|[gc]ec ABc|d3- d2:|

